X:1
T:Le chant des oyseaux
T:Nicolas Gombert
T:Source:  Le Xième  livre de Chansons---Anvers---T.Susato---1545. Editor : André Vierendeels (01/11/13)
T:Le chant des oyseaux
T:b
C:Nicolas Gombert
%%score [ 1 2 3 ]
L:1/8
Q:1/4=120
M:2/2
K:F
V:1 treble nm="Superius" snm="S"
V:2 treble-8 nm="Tenor" snm="T"
V:3 bass nm="Bassus" snm="B"
V:1
 A2 AA A2 A2 | B2 AG F3 F | G2 A2 B2 G2 | A2 B2 c3 B | cA d4 c2 | d3 c/B/ A4 | z2 c2 d3 e | %7
w: Res- veil- lez vous cueurs|en- dor- * mis, le|dieu da- mours, le|dieu da- mours vous|son- * * *|* * * ne,,|le dieu da-|
 f2 e4 d2- | d2 c2 dc BA/G/ |"^b" F2 G4 F2 | G2 G2 B2 B2 | A2 G4 F2 | G4 B3 B | A2 d2 d2 c2 | %14
w: mours vous son-|||me, le dieu da-|mours vous son-|ne, à ce|pre- mier jour de|
 d2 B2 c3 c | B2 B2 A4 | G2 A4 G2- | G2 F2 G4 | z8 | B3 B A2 d2 | d2 c2 d4 | z2 A2 c3 c | %22
w: may oy- seaux fe-|ront mer- veil-||* * les,||pour vous met- tre|hors des- may,|des- tou- pez|
 B2 G2 B4 | A2 GF G2 A2- | A2 G4 F2 | G8 | z2 c2 fedc | d4 z G c2- | cBAG A4 | BcBA GF/G/AB | %30
w: voz o- reil-|||les,|et fa ri ra ri|ron et fa|_ ri ra ri ron|fa ri ra ri ron fe ri ly jo-|
 AAcd cAcd | cAcd cAcd | c2 z2 A2 AA | B2 AG F G2 F | G2 gf ed cB | A2 GF E2 F2- | F2 G2 A2 B2 | %37
w: ly, jo- ly, jo- ly, jo- ly, jo-|ly, jo- ly, jo- ly, jo- ly, jo-|ly, vous se- rez|tous en _ joy- * e|mis, en _ _ _ _ _|joy- e _ mis, chas-|* cun sy ha-|
 c2 d4 c2 | d2 cB c2 B2 | A4 G2 B2 | c2 d2 ed cB | A2 G4 F2 | G8 ||"^La DEUXIESME PARTIE" z4 B3 A | %44
w: ban don- *|ne, sy _ ha- ban-|don- ne, car|la sai- son _ est _|bon- * *|ne.|Vous or-|
 G8 | z8 | f3 e d2 d2 | c3 B A4 | z4 z2 B2 | c3 c B2 B2 | A4 G4 | B3 B A2 d2 | d2 c2 d4 | z8 | %54
w: rez,||vous or- rez à|mon ad- vis|u-|ne doul- ce mu-|si- cque|que fe- ra le|roy mau- vis||
 d4 f3 e/d/ | cd cB/A/ G2 A2- | A2 G4 F2 |"^b" G2 e2 d2 c2 | Bcde f2 d2 | z2 d2 z2 d2 | %60
w: d'u- ne _ _|voix _ _ _ _ au- ten|_ ti- *|que, ti ti ti|ti ti ti py- ti chou|chou chou|
 z2 d2 z2 d2 | z2 d2 cdec | d2 d2 cdec | d2 d2 cc/c/Ac/c/ | A4 AAAA | A2 AA AA A2 | dddd d2 f2- | %67
w: chou chou|chou thi thou- y, thou-|y chou thi thou- y, thou-|y chou toy que dy tu, que dy|tu, le pe- tit mi-|gnon, le pe- tit mi- gnon,|le pe- tit mi- gfnon sain-|
 fede f2 dd | dd d2 c3 B | AB c2 cBAB | c2 AA d2 d2 | dddd dddd | dddd d2 d2 | c2 c2 cccc | %74
w: * cte tes- te dieu, le pe-|tit mi- gnon, sain- cte|tes- te dieu, sain- cte tes- te|dieu, au ser- mon ma|mais- tres- se à saint tro- tin voir|saint ro- bin mon- strer le|te- tin, le doulx mu- se-|
 d2 cB A4 | z4 d2 dd | d2 d2 e2 dc | B2 B2 c2 d2 |"^b" e4 d4 | c2 B2 A4 |[M:3/2] F2 G2 A2 B4 A2 | %81
w: quin, _ _ _|ri- r'et gau-|dir cest mon de- *|vis, chas- cun sy|ha ban|don- * ne,|car le sai- son est|
 G4 F2 G6 ||[M:2/2]"^La TROIXIEME PARTIE" z4 B3 A | G2 F2 F2 ED | E4 F3 F | E2 A2 A2 G2 | %86
w: bon- * ne.|Ros- si-|gnol du bois jo- *|ly, ros- si-|gnol du bois jo-|
 A2 E2 G3 G | F2 F2 E4 | D2 dd e2 f2 | d3 c/B/ c2 d2 |"^b" e2 g2 fed c/B/ | AG G4 F2 | G8 | %93
w: ly à qui la|voix re- son-|ne, pour vous met- tre|hors _ _ _ d'en-|nuy vo- stre gor- ge- gar- *|gon- * * *|ne|
 F2 FF FFFF | FFFF AAAA | AA/A/AA/A/ c2 c2 | cccc cccc | B2 B2 BBBB | B/B/B B/B/B BBAB | %99
w: tar tar tar tar tar tar tar|fri- an fri- an tu tu tu tu|qui la- ra qui la- ra huit huit|huit huit huit huit hoy ti oy ti|co- qui co- qui co- qui|le ve chi le ve- chi ti ti cun ti|
 FBAB FGFG | BGFG A2 AA | AA A2 A2 AA | A2 E2 EE E2 | E2 EE E2 A2 | AGAA GGAA | GG/G/AA/A/ G2 A2 | %106
w: cun ti cun ti cun ti cun ti|cun ti cun ti cun qui by|qui by tu tu tu tu|tu fou- quet fou- quet|fou- quet fou- quet fri-|an fi ti fi ti fi ti fi|ti qui la ra qui la ra fi|
 F8 | G2 GG G2 G2 | A2 GF E2 c2 | d2 e2 f2 d2- | d2 c2 d2 F2 | G2 A2 B3 A | G2 F2 G2 B2 | %113
w: ti|fui- ez re- gretz pleurs|et sou- * ci cha-|scun sy ha- ban-|* don- ne, car|la sai- son _|_ est bon- *|
 A2 G4 F2 | G8 ||"^La QUATRIEME PARTIE" B3 A G2 B2- | B2 A4 G2 | A4 e3 d | c2 d2 c3 B | A2 B4 A2- | %120
w: |ne.|Ar- rie- re mais-|* tre co-|qu, ar- rie-|re mais- tre co-|qu, mais- tre|
 A2 G2 A4 | z2 e2 g3 g | f2 d2 e3 f | e2 dc d2 e2- | e2 d4 c2 | d8 | z4 B3 A | G2 G2 F4 | %128
w: _ co- qu,|sor- tez de|noz cha- pi- *|||tre,|chas- cun|vous est mal-|
"^b" E2 D4 C2 | D2 d2 f4 | z2 A2 c3 d | e2 f3 e dc/B/ | A2 G4 FG | AB cB/A/ G2 FE | F2 G4 F2 | %135
w: * * te-|nu, car vous,|car vous n'es-|tes qu'ing _ trais- * *|tre, car vous _|_ _ _ _ _ n'es- tes _|qu'ung trais- *|
 G2 d2 B4 | d2 B3 B G2 | G2 E2 A2 F2- | F2 B2 G4 | c2 A4 d2 | B4 z2 c2 | A4 d2 d2 | BBGG E2 c2 | %143
w: tre, co- qu,|co- qu, co- qu,|co- qu, co- qu|_ co- qu,|co- qu, co-|qu, co-|qu, trop- co-|qu, co- qu, co- qu, co-|
 A4 z G F2 | BB G2 z G F2 | BB G2 z G F2 | ddBG F2 BB | G2 G2 F2 BB | G2 G2 F2 ff | d2 d2 c2 ff | %150
w: qu, co- qu,|co, co- qu, co- qu,|co, co- qu, co- qu,|trop co- qu, co- qu, trop co-|qu, co- qu, trop co-|qu, co- qu, trop co-|qu, co- qu, trop co-|
 d2 d2 c4 | c2 cc cccc | c2 c2 c2 z2 | f2 ff ffff | f2 f2 f2 f2 | e2 f3 e c2 | d4 c2 d2- | %157
w: qu, co- qu,|par tra- i son en cha- cun|nid pon- nez,|par tra- i- son en cha- cun|nid pon- nez sans|qu'on vous _ _|son- ne, sans|
 dc A2 B4 | A2 B2 A2 B2- | BA F2 G4 | F8 | z8 | d2 dd d2 d2 |"^b" e2 dc B4 | z4 d2 dd | %165
w: _ _ _ qu'on|vous son- * *||ne,||res- veil- lez vous cueurs|en dor- * mis,|res- veil- lez|
"^b" d2 d2 e2 dc | B2 A2 BcdF | G2 A2 B2 G2- | G2 F2 G2 F2 | G2 A2 B2 A2- | A2 G4 F2 | G8- | G8- | %173
w: vous cueurs en- dor- *|mis, le ros- si- gnol, le|ros- si- gnol vous|_ son- ne, le|ros- si- gnol vous|_ son- *|ne.|_|
 G8- | G8- | G8 |] %176
w: |||
V:2
 z8 | d2 dd d2 d2 | e2 dc B2 B2 | c2 d2 e2 f2- | f2 ed e4 | d2 B2 c2 d2 | e2 f3 e d2- | %7
w: |Res- veil- lez vous cueurs|en- dor- * mis, le|dieu da- mours vous|_ _ _ son-|ne, le dieu da-|mours vous _ son-|
 d2 c2 d2 f2 | e4 d2 dd | d2 d2 e2 dc |"^b" B2 c2 d3 d |"^b" cB AG A4 | G4 z4 | f3 f e2 a2 | %14
w: |ne, res- veil- lez|vous cueurs en- dor- *|mis, le dieu da-|mours _ vou _ son-|ne,|à ce pre- mier|
 a2 g2 a3 f | g3 g f2 f2 | e4 d4 | z4 B3 B | A2 d2 d2 c2 | d3 e fg fe/d/ | fg e2 d2 d2 | %21
w: jour de may oy-|seaux fe- ront mer-|veil- les,|pour vous|met- tre hors des-|may, vous met- * tre _ _|hors _ des- may, des-|
 f2 f2 e2 c2 | e4 d4 | z2 A2 c3 c | B2 AG A4 | G2 G2 c3 B | AG A2 BcBA |"^b" G2 B2 edcB | %28
w: tou- pez voz o-|reil- les,|des- tou- pez|voz o- * reil-|les, et fa ri|ra ri ron fa ri ra ri|ron et fa ri ra ri|
 A2 c2 f3 e | dcdf/f/ edcB | cfed efed | efed ef/f/ed | cBAG FD d2- | d2 c2 d2 z2 | e2 ee e2 e2 | %35
w: ron et fa ri|ra ri ron fe ri ly jo- ly, jo-|ly, jo- ly, jo- ly, jo- ly, jo-|ly, jo- ly, jo- ly, fe ri yi jo-|ly, jo- ly, jo- ly, jo- ly,|_ jo- ly,|vous se- rez tous en|
 f2 ed c2 c2 | d3 e f2 z2 | f4 g2 a2 | b2 ag/f/ a2 g2- | g2 f2 g2 G2 | A2 B2 G2 c2- | c2 B2 A4 | %42
w: joy- e _ mis, car|la sai- son,|car le sai-|son est _ _ _ bon-|* * ne, car|la sai- son est|_ bon- *|
 G8 || B3 A G4 |"^b" z4 e3 d | c2 c2 BA B2- | B2 A4 G2 | A4 f3 f | e2 a2 a2 g2 | a2 e2 g3 g | %50
w: ne.|Vous or- rez,|vous or-|rez à mon _ _|_ _ ad-|vis, vous or-|rez- à on ad-|vis u- ne doul-|
 f2 f2 e4 | d4 f3 f | e2 a2 a2 g2 | a2 A2 c3 c | B2 B2 A4 | A2 A2 c3 c | B2 G2 A4 | %57
w: ce mu- si-|cque, que fe-|ra le roy mau-|vis d'u- ne voix|au- ten ti-|que, d'u- ne voix|au- ten ti-|
"^b" G2 g2 f2 e2 | d2 b2 agfe | dd/d/Bd/d/ BBBd | efdB cdBd | cdBG A2 z e | defd e2 e2 | %63
w: qie, ti ti pi|ti ti ti ti ti pi|ti que dy tu, que dy tu, pe- tit il|est temps d'al- ler boy- re, d'al- ler|boy- re, il est temps, chou|thi tou- y thou- y chou|
 defd e2 c2 | cA c/c/A f2 fd | f/f/d f/f/d f3 f | ff f2 fede | f2 ff ed f2 | ffff f2 c2- | %69
w: thi thou- y thou- y thi|thou- y que dy tu, que dy tu,|que dy tu, que dy tu, le pe-|tit mi- gnon sain- cte tes- te|dieu, sain- cte tes- te dieu,|le pe- tit mi- gnon sain-|
 cBAB c2 cB | AB c2 z2 B2- | BAGA B2 GA | B2 GA BB/B/AF | A2 AA A2 A2 | B2 AG F2 F2 | G2 A2 B2 AG | %76
w: * cte tes- te dieu, sain- cte|tes- te dieu sain-|* cte tes- te dieu, il est|temps, il est temps, d'al- ler boy- re,|ri- r'et gau- dir cest|mon _ _ _ de-|vis, chas- cun sy _|
 F2 G4 F2 | G4 z2 f2 | g2 a2 b4 | a2 g2 fe f2 |[M:3/2] A2 B2 c2 d4 c2 | B2 A4 G6 ||[M:2/2] z8 | %83
w: ha- ban- don-|ne, car|la sai- son|est bon- * * ne,|car la sai- son est|bon- * ne.||
 B3 B A2 d2 | d2 c2 d2 A2 | c3 c B2 B2 | A4 G2 BB | A2 d2 d2 c2 | d2 G2 c3 c | B2 B2 A4 | %90
w: Ros- si- gnol du|bois jo- ly à|qui la voix re-|son- ne, pour vous|met- tre hors d'en-|nuy vo- stre gor-|ge jar- gon-|
 GA Bc de fe/d/ | c2 B2 A4 | G2 B2 BBBB | BBBB BB/B/AB/B/ | Addd cd/d/cd/d/ | cd/d/cd/d/ cfef | %96
w: ||ne tar tar tar tar tar|tu tu tu tu tu ve le cy ve le|cy fri- an fri- an qui la- ra qu la-|ra qui la- ra qui l- ra ti cum ti|
 efef ef/f/ec/c/ | dggg dgfg | dg/g/fg/g/ d2 d2 | d2 d2 dddd | dddd c2 c2 | cccc c2 c2 | %102
w: cum ti cum ti cum qui la- ra qui la-|ra ti cum ti cum ti cum ti|cum qui la- ra qui la- ra tu|tu tu fi ti fi ti|tar tar tar tar qui by|qui by qui by tur- ri|
 cccc c2 c2 | c2 c2 cccc | c2 c2 e2 cd | ee/e/cd/d/ e2 c2 | d4 d2 dd |"^b" d2 d2 e3 d | c6 e2 | %109
w: tur- ri tur- ri fou- quet|fou- quet fri- an fri- an|fri- an fi ti fi|ti qui la- ra qui la- ra fi|ti fui- ez re-|gretz pleurs et sou-|ci car|
 f2 g2 a2 gf | e4 d4- | d4 z2 B2 | c2 d2 e2 d2- | dc B2 A4 | G8 ||"^b" z4 e3 d | c2 d2 c2 B2 | %117
w: la sai- son est _|bon- ne,|_ car|la sai- son est|_ _ bon- *|ne.|Ar- rie-|re mais- tre co|
 A2 GF G2 A2- | A2 G2 A2 c2 | d3 B c2 d2 | B4 z2 A2 | c3 c B2 G2 | A2 B2 c4 | z2 e2 g3 g | %124
w: qu, _ _ _ _|_ _ _ mais-|tre _ _ co-|qu, sor-|tez de noz cha-|pi- * tre,|sor- tez de|
 f2 d2 e4 | d4 B3 B |"^b" A2 d2 e2 d2- | d2 c2 d3 c | B2 A2 B2 AG | A2 B2 A4 | A2 c2 z2 A2 | %131
w: noz cha- pi-|tre, chas- cun-|vous est mal- *|* te- nu, chas-|cun vous est mal- *|* te- nu,|car vous, car|
 c2 c2 d2 B2 | cB AG A4 | z2 A2 c3 c | B2 G2 A4 | Gd B2 d2 d2 | B2 B2 G4 | e2 c3 c A2 | d4 B2 e2- | %139
w: vous n'es- tes qu'ung|trais- * * * tre,-|car vous n'es-|tes qu'ung trais-|tra, co- qu, trop co-|qu, co- qu,|co- qu, co- qu,|co- qu, co-|
 e2 c2 f4 | d2 g2 e2 a2 | f4 f2 d2- | dd B2 c2 A2 | cA f2 d2 d2 | B4 z2 d2 | B4 z2 d2 | B4 ddBd | %147
w: * qu, co-|qu, co- qu co-|qu, co- qu,|_ co- qu, co- qu,|co- qu, co- qu, co-|qu, co-|qu, co-|qu, trop co- qu, co-|
 B4 ddBd | B4 AAFA | F4 AAFA | F4 A2 AA | AAAA AAAA | GF A2 AG FE | D2 d2 dddd | dddd d2 d2 | %155
w: qu, trop co- qu, co-|qu, trop co- qu, co-|qu, trop co- qu, co-|qu, par tra- i-|son en cha- cun nid pon- nez sans|qu'on _ vous son- * * *|ne, par tra- i- son en|cha- cun nid vous pon- nez|
 c2 d2 d2 c2- | c2 B2 f4 | g2 f4 e2 | f2 d2 d3 c/B/ |"^b" e2 d4 c2 | d2 cB A4 | A2 AA G2 A2 | %162
w: sans qu'on vous son-|* ne, sans|qu'on vous son-|ne, sans qu'on _ _|vous son- *|ne, _ _ _|res- veil- lez vous cueurs|
 B2 AG F4 | z2 F2 G3 A | B2 A4 G2 | B4 A4 | d2 dd d4 | d2 dd d2 d2 | e2 dc B2 A2 | B2 c2 d3 A | %170
w: en- dor- * mis,|le ros- si-|gnol vous _|son- ne,|res- veil- lez vous,|res- veil- lez vous cueurs|en- dor- * mis, le|ros- si- gnol vous|
 c2 B2 A4 | G2 B2 c2 d2 |"^b""^b" eBcd eBcd |"^b""^b" e2 c2 e2 d2 |"^b" e8 | d8 |] %176
w: son- * *|ne, le ros- si-|gnol, le ros- si- gnol, le ros- si-|gnol vous son- *||ne.|
V:3
 z8 | z8 | z8 | z8 | A,2 A,A, A,2 A,2 | B,2 A,G, F,2 F,2 | G,2 A,2 B,2 B,2 | A,4 G,2 F,2 | %8
w: ||||Res- veil- lez vous cueurs|en- dor- * mis, le|dieu da- mours vous|son- ne, le|
 G,2 A,2 B,4 | B,,4 C,2 D,2 | E,4 D,2 B,,2 | C,2 E,2 D,4 | B,3 A, G,2 G,2 | F,2 E,D, A,4 | %14
w: dieu da- mours,|le dieu da-|mours vous son-|* * ne,|à ce pre- mier|jour de _ may,|
 B,4 F,4 | z4 z2 A,2 | C3 C B,2 B,2 | A,4 G,4 | F,3 F, E,2 A,2 | A,2 G,2 A,2 D,2 | A,3 C B,2 B,2 | %21
w: _ _|oy-|seaux fe- ront mer-|veil- les,|pour vous met- tre|hors des- may, des-|tou- pez voz o-|
 A,2 G,F, A,4 | G,2 E,2 G,3 G, | F,2 D,2 E,2 F,2 | G,2 F,E, D,4 | z4 z2 C,2 | F,3 E, D,C,D,F, | %27
w: reil- * * *|les, des- tou- pez|voz o- reil- *|* * * les,|et|fa ri ra ri ron et|
 B,A,G,F, G,2 C,2 | F,3 E, D,C, D,2 | G,A,G,F, G,B,/B,/A,G, | F,D,A,B, A, z/ D,/A,B, | %31
w: fa ri ra ri ron et|fa ri ra ri ron|fa ri ra ri ron fe ri ly jo-|ly, jo- ly, jo- ly, jo- ly, jo-|
 A, z/ D,/A,B, A,F,A,B, | F,3 E, D,2 F,2 |"^b" E,4 D,4 | C,2 C,C, C,4 | A,2 A,A, A,2 A,2 | %36
w: ly, jo- ly, jo- ly, jo- ly, jo-|ly, fe ri ly|jo- ly,|vous se- rez tous,|vous se- rez tous en|
"^b" B,2 A,G, F,F, G,2 |"^#" A,2 B,4 A,2 | G,4 F,2 B,,2 |"^b" C,2 D,2 E,3 D, | %40
w: joy- e e mis, chas- cun|sy ha- ban-|don- ne, car|la sai- son et|
 C,2 B,,B,, C,D, E,2 |"^b" F,2 G,2 D,4 | G,8 || z8 |"^b" E,3 D, C,4 | F,3 E, D,2 D,2- | %46
w: bon- ne, car la sai- son|est bon- *|ne.||vous or- rez,|vous or- rez à|
 D,2 C,2 B,,4 | A,,4 z2 A,2 | C3 C B,2 B,2 | A,4 G,3 F, | D,2 D4 C2 | D2 G,G, D2 D,D, | %52
w: _ mon ad-|vis, u-|ne doul- ce mu-|sic- * *|que, mu- si-|cque que fe- ra, que fe-|
 A,2 A,A, B,2 B,2 | A,2 G,F, E,2 A,2- | A,2 G,2 A,2 D,2 | F,3 F, E,2 C,2 |"^b" E,4 D,4 | %57
w: ra, que fe- ra le|roy _ _ _ mau-|* * vis d'u-|ne voix au- ten-|ti- que,|
 z2 G,2 B,2 C2 | G,2 G,2 D,2 B,2- | B,2 G,B, G,2 G,2 | G,A,B,G, A,B,/B,/G,B,/B,/ | %61
w: ti ti ti|ti py ti pe|_ tit chou thi thou-|y, thou- y, thou- y, que dy tu, que dy|
 A,B,/B,/G,B,/B,/ F,2 z A, | B,B,B,B, A,A, A,2 | B,B,B,B, A,4 | z2 F,2 F,F,D,F,/F,/ | %65
w: tu, que dy tu, que dy tu, ti|ti ti ti pi ti pi ti|ti ti ti pi ti|toy qu dy tu, que dy|
 D,F,/F,/D,F,/F,/ D,2 D,D, | B,2 B,B, B,2 B,B, | B,2 B,2 B,2 B,2 | B,B,B,B, F,2 F,F, | %69
w: tu, que dy tu, que dy tu le pe-|tit san- son- net de pa-|ris sai- ge cour-|toys et bien a- pris, le pe-|
 F,F, F,2 F,F,F,F, | F,4 B,3 A, | G,A, B,2 G,A, B,2 | G,A, B,2 G,G,F,D, | %73
w: tit mi- gnon, le pe- tit mi-|gnon, faic te|tes- te dieu, il est temps,|il est temps- d'al- ler boy- re|
 F,2 F,F, F,/F,/F, F,/F,/F, | D,2 D,D, D,2 D,2 |"^b" E,2 D,C, B,,4 | z2 B,,2 C,2 D,2 | %77
w: qe dy tu san- son net de pa- ris|ri- r'et gau- dir cest|mon de- * vis,|chas- cun sy|
"^b""^#" E,6 D,2 | C,4 G,3 D, | F,2 G,2 D,4 |[M:3/2] D,2 G,2 F,2 B,,4 F,2 | G,2 D,4 G,6 || %82
w: ha- ban-|don- * *|* * ne,|car la sai- son est|bon- * ne.|
[M:2/2] B,3 A, G,2 F,2 |"^b" E,2 D,4 C,B,, | A,,4 D,4 | z2 C,2 D,2 E,2 | F,2 C,D, E,F, G,2 | %87
w: Ros- si- gnol du|bois jo- * *|* ly|à qui la|voix re- * * * son-|
"^-natural" D,2 D,D, A,2 A,2 | B,2 B,2 A,2 F,2 | G,3 G, F,2 F,2 |"^b" E,4 D,2 B,,2 | F,2 G,2 D,4 | %92
w: ne, pour vous met- tre|hors d'en- nuy vo-|stre gor- ge jar-|gon- ne, jar-|gon- * ne|
"^b""^b" E,4 E,4 | D,2 D,D, D,D,D,D, | D,B,,B,,B,, F,F,F,F, | F,/F,/F, F,/F,/F, A,A,A,A, | %96
w: tar tar|tar tar tar- fri- an fri- an|fri- an fri- an tur- ry tur- ry|qui la- ra qui la- ra tu tu tu tu|
 A,A,A,A, A,A,A,A, |"^b""^b""^b""^b" G,E,E,E, G,E,D,E, | %98
w: tu tu tu tu huit huit huit huit|tu fou- quet tu fou- quet tu fou-|
"^b""^b""^b""^b""^b" G,E,/E,/D,E,/E,/ G,G,F,G, | B,G,F,G, B,B,B,B, | G,B,B,B, F,2 F,F, | %101
w: quet ve le cy ve le cy ti cun ti|cun ti cun ti cun guil- le- met-|te co- li- net- te le pe-|
 F,F, F,2 F,2 F,F, | F,2 A,2 A,A, A,2 | A,2 A,A, A,2 F,2 | F,E,F,F, C,C,F,F, | %105
w: tit mi- gnon que dy tu|tu fou- quet fou- quet|fou- quet fou- quet fri-|an fi ti fi ti fi ti fi|
 C,C,/C,/F,F,/F,/ C,2 F,2 | B,,4 B,2 B,B, | B,2 B,2 C3 B, | A,8 | z4 F,4 | G,2 A,2 B,3 A, | %111
w: ti qui la- ra qui la- ra fi|ti fui- ez re|gretz pleurs et sou-|ci|car|la sai- son _|
 G,2 F,2 G,3 F, | E,2 D,2 C,2 G,2 | F,2 G,2 D,4 | G,8 || z8 |"^b" z4 E,3 D, | C,2 D,2 C,3 B,, | %118
w: _ est bon- *|||ne.||Ar- rie-|re mais- tre co-|
 A,,2 B,,2 A,,2 A,G, | F,2 G,2 F,3 E, | D,2 E,2 F,3 F, |"^b" E,2 C,2 E,4 | D,4 z2 A,2 | %123
w: qu, co- qu, ar- rie-|re mais- tre co-|qu, sor- tez de|noz cha- pi-|tre, sor-|
 C3 C B,2 G,2 | B,4 A,4 | B,3 A, G,2 G,2 | F,2 G,3 F, D,2 |"^b" E,4 B,3 A, |"^b" G,2 F,2 G,2 E,2 | %129
w: tez de noz cha-|pi- tre|chas- cun vous est|mal- te- * *|nu, chas- cun|vous est mal- te-|
 D,4 z2 D,2 | F,8 | z2 A,G, F,2 G,2 | F,2 E,2 D,2 D,2 | F,3 F, E,2 C,2 |"^b" D,2 E,2 D,4 | G,8 | %136
w: nu, car|vous,|car vous n'es- tes|qu'ing trais- tre, car|vous n'es- tes qu'ung|trais- * *|tre,|
"^b" z2 G,2 E,4 | z2 A,2 F,4 | B,2 G,4 C2 | A,4 D2 B,2 |"^b" z G, E,2 A,2 F,2- | %141
w: co- qu,|co- qu,|co- qu, co-|qu, co- qu,|co- qu, co- qu,|
 F,F,D,D, B,,2 B,2 | G,4 A,2 F,2- | F,F,D,D, B,,2 B,2 |"^b""^b" G,G,E,E, B,,2 B,2 | %145
w: _ co- qu, co- qu, co-|qu, co- qu,|_ co- qu, co- qu, co-|qu, co- qu, co- qu, co-|
"^b""^b" G,G,E,E, B,,2 B,2 | G,4 B,B,G,B, |"^b" E,4 B,B,G,B, |"^b" E,4 F,F,D,F, | B,,4 F,F,D,F, | %150
w: qu, co- qu, co- qu, co-|qu, trop- co- qu, co-|qu, trop- co- qu, co-|qu, trop co- qu co-|qu, trop co- qu, co-|
 B,,4 F,2 F,F, | F,F,F,F, F,F,F,F, | E,D, F,3 E, D,C, | B,,4 B,2 B,B, | B,B,B,B, B,B,F,G, | %155
w: qu, pzr trz- i-|son en cha- cun nid pon- nez sans|qu'on vous son- * * *|ne, par tra- i-|son en cha- cun nid vous po- nez|
 A,2 F,2 G,2 A,2 | G,2 G,2 A,2 B,2- | B,A, F,2 G,4 | D,2 G,2 F,2 G,2- |"^b" G,F, D,2 E,4 | %160
w: sans qu'on vous son-|ne, sans qu'on vous|_ _ _ son-|ne, sans qu'on vous|_ _ _ son-|
 B,,4 D,2 D,D, |"^b" C,2 D,2 E,2 D,C, | B,,4 z2 B,,2 |"^b" C,2 D,2 E,4 | D,3 E, F,2 G,2- | %165
w: ne, res- veil- lez|vous cueurs en- dor- *|mis, le|ros- si- gnol|vous _ _ son-|
 G,D, G,4 F,2 | G,2 F,2 G,A, B,2- | B,2 F,2 G,A, B,2 | A,4 G,2 D,2 | G,2 F,2 D,4 | %170
w: |ne, le ros- si- gnol,|_ le ros- si- gnol|vous son- *|* * ne,|
 z2 B,,2 C,2 D,2 | E,4 z2 B,,2 |"^b""^b" C,D,E,B,, C,D,E,B,, |"^b" C,D,E,F, G,A,B,G, | C3 B, C4 | %175
w: le ros- si-|gnol, le|ros- si- gnol, le ros- si- gnol, le|ros- si- gnol, le ros- si- gnol vous|son- * *|
 G,8 |] %176
w: ne.|

